X:1
T:Alef
T:Wim Mertens
T:Alef
C:Wim Mertens
%%score { 1 | 2 }
L:1/8
Q:1/4=95
M:4/4
K:C
V:1 treble nm="Piano" snm="Pno."
V:2 bass 
V:1
 BE E2 B2 eE | z z c2 BEcE | BEEB EeEd | z2 cE BEcE | B2 EB EeEd | z EcE BEcE | B2 EB EeEd | %7
 z EcE BEcE | A2 DA DdDc | z DBD ADBD | A2 DA- A d2 c | z DBD ADBD | B2 E[EB] EeE[Ed] | %13
 z E[Ec]E BE[Cc]E | B2 EB E[Ee]E[Ed] | z E[Ec]E [EB]E[Cc]E | A2 DA D[Dd]D[Dc] | z D[DB]D ADBD | %18
 A2 D[DA] D[Dd]D[Dc] | z D[DB]D A D2 D | GECG- G[Cc]CB | z C[CA]C GCAC | ^F2 B,F B,BB,A | %23
 z [B,E]G[B,E] ^FB,[G,G]B, | ^F2 B,F B,[B,B]B,A | z [B,E]GB, ^F B,2 E | B2 E[EB] E[Ee]E[Ed] | %27
 z E[Ec]E BE[Cc]E | B2 E[EB] E[Ee]E[Ed] | z E[Ec]E [EB]2 [Cc]E | B2 E[EB] E[Ee]E[Ed] | %31
 z E[Ec]E BE[Cc]E | A2 DA D[Dd]D[Dc] | z D[DB]D ADBD | A2 D[DA] D[Dd]D[Dc] | z D[DB]D ADBD | %36
 GECG C[Cc]C[CB] | z C[CA]C GCAC | ^F3 F- F B2 A | z [B,E]GB, [^F,^F]B,[G,G]B, | %40
 E2 A,E A,[A,A]A,[A,G] | z A,[A,F]A, [A,E]A,FA, | E2 A,E A,[A,A]A,[A,G] | z A,[A,F]A, E2 FA, | %44
 D2 G,D G,[G,G]G,[G,F] | z G,[G,E]G, G,2 EG, | D3 [G,D] G,[G,G]G,F | z G,EG, D G,3 | %48
 B2 E[EB] E[Ee]E[Ed] | z E[Ece]E BE[Cc]E | B2 E[EB] E[Ee]E[Ed] | z E[Ec]E [EB]E[Cc]E | %52
 A2 D[DA] D[Dd]D[Dc] | z D[DB]D [DA]DBD | A2 D[DA] D[Dd]D[Dc] | z D[DB]D AD[B,B]D | %56
 G2 C[CG] C[CGc]C[CB] | EC[CA]C GCAC | ^F2 B,[B,F] [B,F][B,B]B,[B,A] | %59
 z B,/E,/ [E,G]2 [E,^F]B,[EG]B, | ^F^DB,[B,F] B,[B,B]B,[B,A] | z E G2 ^F2 G2 | E3 E- E A2 G | %63
 z2 F2 E2 F2 | E3 E- E A2 G | z2 F2 E2 F2 | D3 D- D[DG]D[DF] | z2 E2 D2 E2 | D3 D [DG]G[DG]F | %69
 z2 E2 D2 E2 | C3 C- C F2 E | z2 D2 C2 D2 | B, z E,B, E,[B,E]E,D | z E,[E,C]E, [E,B,]E,[E,C]E, | %74
 z2 EE- EEED | z ECE- EE C2 | B2 E[EB] E[Ee]E[Ed] | EE[Ece]E [EB]E[Cc]E | B2 E[EB] E[Ee]E[Ed] | %79
 z E[Ec]E BE[Cc]E | B2 E[EB] E[Ee]E[Ed] | EE[Ec]E BE[Cc]E | A2 D[DA] D[Dd]D[Dc] | z D[DB]D ADBD | %84
 A2 D[DA] D[Dd]D[Dc] | z D[DB]D ADBD | GEC[CG] C[Cc][CE][CB] | z CAC GCAC | ^F3 F- F B2 A | %89
 z E G2 ^F2 G2 | ^F3 F- F B2 A | z2 G2 ^F2 G2 | E3 E- E A2 G | z2 F2 E2 F2 | E3 E E A2 G | %95
 z2 F2 E2 F2 | D3 D- D G2 [Ff] | z2 E2 [DF]2 E2 | C3 [CF]- [CF] [Ff]2 E | z2 DF CF D2 | %100
 z4 z EE[DEB] | z E C4 CE | z2 EE- E E2 D | z2 C4 C2 | z4 z DDC | z8 | z4 z C3 | z8 | z8 | z8 | %110
 E3 E- E4 | z2 F2 E2 F2 | z2 z E- E4 | z8 | z8 | z8 | z8 | z8 |] %118
V:2
!ped! z8 | z8 | z8 | z8!ped-up! |!ped! z ^G,3- G,4 | z2 A,2 z4 | z ^G,3- G,4 | A,8!ped-up! | %8
!ped! z ^F,3- F,4 | G,8 | z ^F,3- F,2 D2 | G,8!ped-up! |!ped! z ^G,3- G,4 | A,4 B,2 C2 | %14
 ^G,, ^G,3- G,2 G,2 | A,4 B,4!ped-up! |!ped! ^F,, ^F,3- F,4 | G,4 A,2 B,2 | ^F,, ^F,3- F,4 | %19
 G,4 A,2 B,2!ped-up! |!ped! E,, E,3- E,2 E,2 | A,,8!ped-up! |!ped! ^D,, ^D,6 z | %23
 E,, E,3 ^F,4!ped-up! |!ped! ^D,,^D, z2 z4 | E,, E,2- E, ^F,2 G,2!ped-up! | %26
!ped! ^G,, ^G,3- G,2 G,2!ped-up! |!ped! A,, A,2 A, B,4!ped-up! |!ped! ^G,, ^G,3- G,2 G,2!ped-up! | %29
!ped! A,, A,3 B,4!ped-up! |!ped! ^G,, ^G,3- G,2 G,2!ped-up! |!ped! A,, A,3 B,4!ped-up! | %32
!ped! ^F,, ^F,3- F,4!ped-up! |!ped! G,, G,3 A,2 B,2!ped-up! |!ped! ^F,, ^F,3- F,2 F,2!ped-up! | %35
!ped! G,, G,3 A,2 B,2 | E,, E,3- E,4 | A,, A,3- A,4!ped-up! | %38
!ped! ^D,,^D,[I:staff -1] B,2 B,2 B,2!ped-up! |!ped![I:staff +1] E,, E,2 z z4!ped-up! | %40
!ped! ^C,,^C, z2 z4!ped-up! |!ped! D,,D, z2 E,2 F,2!ped-up! |!ped! ^C,,^C, z2 z4!ped-up! | %43
!ped! D,, D,2- D, E,2 F,2 | z B,,, B,,6 | C,, C,3 D,2 E,2!ped-up! |!ped! B,,,8!ped-up! | %47
!ped! C,,8!ped-up! |!ped! ^G,,6 ^G,2!ped-up! |!ped! A,, A,3 B,4!ped-up! | %50
!ped! ^G,, ^G,3- G,2 G,2!ped-up! |!ped! A,, A,3 B,4!ped-up! |!ped! ^F,, ^F,3- F,3 F,!ped-up! | %53
!ped! G,, G,3 A,2 B,2!ped-up! |!ped! ^F,, ^F,3- F,2 F,2!ped-up! |!ped! G,, G,3 A,2 B,2 | %56
 E,, E,3- E,2 E,2 | A,, A,6- A, | ^D,,^D, z2 z4!ped-up! |!ped! E,,8!ped-up! | %60
!ped! ^D,,^D, z2 z4!ped-up! |!ped! E,,[I:staff -1][E,B,]B,B, B,B,G,B, | %62
[I:staff +1] ^C,,^C,A,A, A,A,[C,A,]A,!ped-up! |!ped! D,,A,A,A, E,A,F,A,!ped-up! | %64
!ped! ^C,,^C,A,A, A,A,[C,A,]A,!ped-up! |!ped! D,, [D,A,]2 A, E,A,F,A, | %66
 B,,,B,,G,G, G,G,[B,,,G,]G, | [C,,G,][C,G,]G,G, D,2 E,G, | B,,,B,,G,G, G,G,[B,,,G,]G,!ped-up! | %69
 C,, [C,G,]2 G, D,G,E,G, | A,,, A,,3 F,F,F,F, | D,, F,2 F, C, F,2 F, | ^G,,,^G,, z4 z2 | %73
 A,,, A,,4 z A,,2 | [^G,,,B,]^G,,E,[E,B,] E,B, [G,,E,]2 | A,,, E,3 B, E,3 | ^G,, ^G,3- G,2 G,2 | %77
 A,, A,3 B,4 | ^G,, ^G,3- G,2 G,2 | A,, A,3 B,4 | ^G,, ^G,3- G,2 G,2 | A,, A,3 B,4 | %82
 ^F,, ^F,3- F,2 F,2 | G,, G,3 A,2 B,2 | ^F,, ^F,3- F,4 | G,, G,3 A,2 B,2 | E,, E,3- E,4 | %87
 A,,4 G,4 | z ^D,,[^D,B,]B, B,B,[D,B,]B, | E,,>E,- E,B, ^F,B,G,B, | ^D,,^D,B,B, B,B,[D,B,]B, | %91
 E,, [E,B,]2 B, ^F,B,G,B, | ^C,,^C, A,2 A,A,A,A, | D,,[D,A,]A,A, E,A,F,A, | %94
 ^C,,^C,A,A, A,A,[C,A,]A, | D,,[D,A,]A,A, E,A,F,A, | B,,,B,,G,G, G,G,G,G, | %97
 C,, [C,G,]2 G, D,G,E,G, | A,,,A,,F,F, [A,,F,] F,2 F, | D,, [D,F,]2 F,- F,F,D,F, | %100
 [^G,,,B,]^G,,E,[E,B,] E,E,E,E, | [A,,,E,] [A,,E,]2 E, [B,,B,]E,C,E, | [^G,,,B,]^G,,E,B,- B,2 E,2 | %103
 A,,, E,2 E, [B,,B,]E,C,E, | [^F,,,A,]^F,,D,A, D,D, [F,,D,]2 | G,,,G,,_B,D, [D,A,]D,[D,B,]D, | %106
 [E,,,G,]E,,C,[C,G,] C,G,C,[G,_B,] | F,,,[F,,C,G,]A,C, G,C,A,C, | F,2 _B,,,F, _B,, _B,2 A, | %109
 [G,,,D,][G,,_B,,]G,D, F,2 [G,,G,]2 |!ped! [A,,,E,]A,,A,,E, A,,[A,,A,][A,,A,][A,,G,] | %111
 D,,,A,,[A,,F,]A,, [D,,A,,E,]A,,/F,/ F,A,, | [^C,,,E,]^C,,A,,E, A, A,2 G, | %113
 z2 F,2 [E,,E,][A,,A,]F,A,, | [^C,,,E,] ^C,,2 E, A,,A,A,,G, | ^C,,A,, F,2 [E,,E,]A, [F,,F,]2 | %116
 z2 D,2- D, A,,3 | z D,3- D,4!ped-up! |] %118

